pieces/chess7/nb.svg

<svg width="68" height="68" viewBox="0 0 68 68" fill="none" xmlns="http://www.w3.org/2000/svg">
<path fill-rule="evenodd" clip-rule="evenodd" d="M24.848 39.728C24.592 40.1973 24.656 40.624 25.04 41.008C25.424 41.392 25.36 41.8827 24.848 42.48C24.3787 43.1627 23.504 44.08 22.224 45.232C20.9867 46.384 19.92 47.152 19.024 47.536C17.5733 48.3893 16.08 48.4533 14.544 47.728C13.776 47.344 12.816 46.5973 11.664 45.488C10.5547 44.3787 9.78667 43.4827 9.36 42.8C8.848 42.1173 8.656 41.5413 8.784 41.072C8.912 40.6027 8.93333 40.048 8.848 39.408C8.848 38.896 8.72 38.5333 8.464 38.32C8.208 38.064 8.336 37.232 8.848 35.824C9.36 34.544 10.448 32.432 12.112 29.488C13.776 26.544 14.8427 24.368 15.312 22.96C15.7813 21.68 15.696 21.104 15.056 21.232C14.4587 21.3173 14.288 21.0187 14.544 20.336C14.8 19.568 15.2693 18.544 15.952 17.264C16.6347 15.9413 17.2533 14.96 17.808 14.32C18.4053 13.7227 19.024 13.488 19.664 13.616C20.3467 13.7013 20.944 13.3173 21.456 12.464C21.9253 11.6533 22.3733 10.3947 22.8 8.688C23.2693 6.98133 23.76 5.424 24.272 4.016C24.912 5.33867 25.5947 6.59733 26.32 7.792C27.0453 8.98667 27.792 9.73333 28.56 10.032C30.48 9.30667 32.784 9.136 35.472 9.52C39.312 10.032 42.1493 10.8 43.984 11.824C45.8187 12.8053 48.016 14.8747 50.576 18.032C51.5573 19.2693 52.3467 20.592 52.944 22C53.5413 23.3653 54.0747 24.8587 54.544 26.48C55.0133 28.1013 55.376 29.9573 55.632 32.048C55.9307 34.1387 56.144 36.016 56.272 37.68C56.272 39.472 56.208 41.136 56.08 42.672C55.9947 44.1653 55.9947 45.68 56.08 47.216V50.992C56.08 51.9307 56.2507 53.1893 56.592 54.768C56.8053 56.0907 57.232 57.5627 57.872 59.184C58.512 60.8053 59.1093 62.4053 59.664 63.984H19.472C18.9173 62.8747 18.7253 61.6587 18.896 60.336C18.896 59.4827 19.0027 58.4373 19.216 57.2C19.4293 55.9627 19.7707 54.7893 20.24 53.68C20.624 52.6987 21.136 51.76 21.776 50.864C22.416 49.9253 23.0987 49.0293 23.824 48.176C25.1893 46.0427 26.4693 44.336 27.664 43.056C28.688 41.904 29.7973 40.816 30.992 39.792C32.2293 38.7253 33.36 37.5733 34.384 36.336C35.2373 35.0987 35.8133 33.968 36.112 32.944C36.3253 32.2613 36.304 31.344 36.048 30.192C35.792 28.9973 35.5573 28.4213 35.344 28.464C35.1733 28.5493 34.832 29.3387 34.32 30.832C33.808 32.3253 33.3173 33.328 32.848 33.84C32.3787 34.5653 31.8667 35.0773 31.312 35.376C30.8 35.632 30.352 35.888 29.968 36.144C29.456 36.4 29.0507 36.528 28.752 36.528C28.496 36.528 28.176 36.656 27.792 36.912C27.3227 37.2533 26.768 37.7013 26.128 38.256C25.5307 38.768 25.104 39.2587 24.848 39.728ZM48.976 56.112C47.0987 56.2827 45.4773 56.4107 44.112 56.496L43.92 53.232C44.6027 53.1893 46.0533 53.1253 48.272 53.04C50.4907 52.912 52.176 52.72 53.328 52.464L53.968 55.728C52.56 55.8133 50.896 55.9413 48.976 56.112Z" fill="black"/>
<path d="M22.807 55.923C22.871 55.987 23.31 56.093 23.78 56.159C24.251 56.225 26.243 56.289 28.207 56.303C30.6705 56.3199 31.5423 56.3783 31.846 55.9911C32.0471 55.7347 31.999 55.2829 31.999 54.494C31.999 53.419 31.953 53.236 31.681 53.233C30.577 53.22 24.929 52.859 24.454 52.77L23.877 52.661L23.284 54.233C22.957 55.098 22.743 55.858 22.807 55.923Z" fill="white"/>
<path d="M34.64 54.87L36.272 56.509C37.169 57.41 37.979 58.122 38.073 58.09C38.167 58.059 38.922 57.296 39.75 56.396L41.256 54.759L37.996 51.514L34.64 54.87Z" fill="white"/>
<path d="M52.517 41.873C52.652 44.571 52.772 45.48 53.204 47.054L53.727 48.963L53.84 46.327C54.17 38.677 53.965 34.606 52.98 29.236C52.149 24.701 51.073 22.285 48.38 18.905C45.165 14.87 43.618 13.603 40.795 12.695C37.745 11.714 35.61 11.367 33.375 11.488C32.281 11.547 31.317 11.664 31.232 11.749C31.147 11.834 31.674 12.008 32.402 12.135C34.643 12.529 38.632 13.581 39.964 14.131C42.51 15.181 44.167 16.506 46.449 19.317C48.146 21.408 49.314 23.304 50.001 25.087C51.134 28.025 52.169 34.929 52.517 41.873Z" fill="white"/>
<path d="M19.379 23.614C18.677 24.449 18.83 25.94 19.642 26.166C20.427 26.385 20.626 26.341 22.1 25.629C23.71 24.849 24.055 24.537 23.968 23.939C23.894 23.432 22.64 23.063 20.97 23.058C19.941 23.054 19.812 23.1 19.379 23.614Z" fill="white"/>
<path d="M11.206 37.554C11.644 38.194 11.668 38.338 11.584 39.871H11.585L11.495 41.506L12.473 40.456C13.424 39.433 13.769 38.756 13.584 38.273C13.475 37.989 11.435 36.873 11.025 36.873C10.796 36.873 10.832 37.009 11.206 37.554Z" fill="white"/>
<path d="M48.976 56.112C47.0987 56.2827 45.4773 56.4107 44.112 56.496L43.92 53.232C44.6027 53.1893 46.0533 53.1253 48.272 53.04C50.4907 52.912 52.176 52.72 53.328 52.464L53.968 55.728C52.56 55.8133 50.896 55.9413 48.976 56.112Z" fill="white"/>
</svg>

<svg height="68" width="68" xmlns="http://www.w3.org/2000/svg"><path d="m42 50.727c-.07 1.972.343 3.9.727 5.818l.364 1.637c.06.06.143.105.182.182.027.054-.054.154 0 .181.108.055.242 0 .363 0h7.637c.303 0 .607.028.909 0 .367-.033.725-.136 1.09-.181.121-.015.245.02.364 0 .247-.041.48-.147.728-.182.247-.036 1.084.047 1.272 0 .06-.015-.06-.182 0-.182s0 .242 0 .182v-2.365c0-.06.034-.131 0-.182-.095-.142-.268-.22-.363-.363-.034-.05 0-.121 0-.182-.121-.121-.269-.221-.364-.364-.034-.05 0-.12 0-.182v-1.09c0-.122.03-.246 0-.364-.033-.132-.149-.232-.182-.364-.03-.117.054-.255 0-.363-.027-.055-.182.06-.182 0 0-.055.603.12 0-.182-.054-.027-.139.043-.181 0-.043-.043-.061-.182 0-.182.112 0 .668.973 0-.364-.039-.076-.243-.12-.182-.181.06-.061.182.267.182.181 0-.191-.076-.386-.182-.545-.034-.05-.121 0-.182 0h-.182c.121 0 .472.054.364 0-.224-.112-.49-.103-.727-.182-.129-.043-.243-.121-.364-.182-.546-.06-1.095-.091-1.636-.182-.19-.031-.355-.16-.546-.181-.361-.04-.727 0-1.09 0h-1.819c-.182 0-.365.025-.545 0-1.788-.256.451-.182-1.637-.182-.931 0 .361.02-1.454-.182-.181-.02-.364 0-.546 0-.06 0-.127-.027-.182 0-.195.098-.345.275-.545.364-.35.155-.9.03-1.091.363-.162.284.31.587.364.91.014.084-.182.095-.182.181 0 .06.121 0 .182 0" fill="#fff" stroke="#000"/><path d="m24.848 39.728q-.384.704.192 1.28.576.576-.192 1.472-.704 1.024-2.624 2.752-1.856 1.728-3.2 2.304-2.176 1.28-4.48.192-1.152-.576-2.88-2.24-1.664-1.664-2.304-2.688-.768-1.024-.576-1.728.192-.704.064-1.664 0-.768-.384-1.088-.384-.384.384-2.496.768-1.92 3.264-6.336 2.496-4.416 3.2-6.528.704-1.92-.256-1.728-.896.128-.512-.896.384-1.152 1.408-3.072 1.024-1.984 1.856-2.944.896-.896 1.856-.704 1.024.128 1.792-1.152.704-1.216 1.344-3.776.704-2.56 1.472-4.672.96 1.984 2.048 3.776 1.088 1.792 2.24 2.24 2.88-1.088 6.912-.512 5.76.768 8.512 2.304 2.752 1.472 6.592 6.208 1.472 1.856 2.368 3.968.896 2.048 1.6 4.48.704 2.432 1.088 5.568.448 3.136.64 5.632 0 2.688-.192 4.992-.128 2.24 0 4.544v3.776q0 1.408.512 3.776.32 1.984 1.28 4.416.96 2.432 1.792 4.8h-40.192q-.832-1.664-.576-3.648 0-1.28.32-3.136t1.024-3.52q.576-1.472 1.536-2.816.96-1.408 2.048-2.688 2.048-3.2 3.84-5.12 1.536-1.728 3.328-3.264 1.856-1.6 3.392-3.456 1.28-1.856 1.728-3.392.32-1.024-.064-2.752-.384-1.792-.704-1.728-.256.128-1.024 2.368-.768 2.24-1.472 3.008-.704 1.088-1.536 1.536-.768.384-1.344.768-.768.384-1.216.384-.384 0-.96.384-.704.512-1.664 1.344-.896.768-1.28 1.472zm-2.304 16.256q1.6.384 4.928.384 3.392-.064 4.48-.064l.128-3.2q-.96 0-3.968-.128-2.944-.128-4.288-.384zm21.568.512q2.048-.128 4.864-.384 2.88-.256 4.992-.384l-.64-3.264q-1.728.384-5.056.576-3.328.128-4.352.192zm-6.144-5.12-3.392 3.392 3.392 3.52 3.392-3.52zm-15.232-28.288q-.768-.128-2.496-.128-.448 0-.896.512-.384.512-.448.832v.896q.064.64.448.96.128.128 1.344.128.384-.064.96-.32.576-.32 1.088-.576 1.344-.704 1.344-1.216.128-.704-.32-.768-.384-.064-1.024-.32zm-12.16 13.696q1.088 1.088 1.088 2.304.064.256-.128 1.28-.192.96-.192 1.024.192.256 1.344-1.088 1.216-1.344 1.088-1.856 0-.384-1.28-1.088-1.28-.704-1.92-.576zm19.2-25.088q3.84.576 8 1.728 4.16 1.088 6.912 3.84 2.496 2.88 3.392 4.224.896 1.28 2.048 3.904.896 3.008 1.344 6.336.512 3.328.768 6.272.192 2.496.192 4.928 0 2.368 1.536 6.784-.192-3.264 0-6.016.256-2.816.128-5.824-.128-3.328-.832-7.488t-1.472-6.08q-.96-2.368-2.56-4.416-1.536-2.048-3.456-4.16-1.728-1.856-3.776-2.688-2.048-.896-5.312-1.472-2.176-.448-3.648-.192-1.408.256-3.264.32z"/><path d="m23.78 56.159c-.47-.066-.909-.172-.973-.236-.064-.065.15-.825.477-1.69l.593-1.572.577.109c.475.089 6.123.45 7.227.463.272.003.318.186.318 1.261 0 1.98.303 1.837-3.792 1.809-1.964-.014-3.956-.078-4.427-.144zm12.492.35-1.632-1.639 1.678-1.678 1.678-1.678 1.63 1.622 1.63 1.623-1.506 1.637c-.828.9-1.583 1.663-1.677 1.694-.094.032-.905-.68-1.802-1.581zm10.769-.301c.124-.05.369-.053.546-.007s.076.087-.224.09c-.3.004-.445-.033-.322-.083zm6.163-9.154c-.432-1.574-.552-2.483-.687-5.181-.348-6.944-1.383-13.848-2.516-16.786-.687-1.783-1.855-3.679-3.552-5.77-2.282-2.811-3.939-4.136-6.485-5.186-1.332-.55-5.321-1.602-7.562-1.996-.728-.127-1.255-.301-1.17-.386s1.049-.202 2.143-.261c2.235-.121 4.37.226 7.42 1.207 2.823.908 4.37 2.175 7.585 6.21 2.693 3.38 3.769 5.796 4.6 10.331.985 5.37 1.19 9.441.86 17.091l-.113 2.636zm-33.562-20.888c-.812-.226-.965-1.717-.263-2.552.433-.514.562-.56 1.591-.556 1.67.005 2.924.374 2.998.881.087.598-.258.91-1.868 1.69-1.474.712-1.673.756-2.458.537zm-8.058 13.705c.084-1.533.06-1.677-.378-2.317-.374-.545-.41-.681-.181-.681.41 0 2.45 1.116 2.559 1.4.185.483-.16 1.16-1.111 2.183l-.978 1.05.09-1.635z" fill="#fff" fill-rule="evenodd"/></svg>
